X: 101
T: The Duke of Gloucesters Reel
%O: 1795
%R: reel
Z: 2018 John Chambers <jc:trillian.mit.edu>
B: Wm. Campbell "10th Book of New and Favorite Country Dances, Strathey Reels" 1795 p.10
F: https://archive.org/details/campbellstenthbo00camp
M: C|
L: 1/8
K: G
% - - - - - - - - - - - - - - - - - - - - - - - - -
% Voice 1 arranged for small-scale proofreading
V: 1 staves=2
e |\
d2BG BGcA | d2BF (cAAc) |\
d2BG BG df | gedc BGG :|\
f |\
gbeg fadf | egdB (cAAf) |
gbeg fadf | gedc BGGf |\
gbeg fadf | egdB cAAf |\
gaba gfed | egdc BGG |]
% - - - - - - - - - - - - - - - - - - - - - - - - -
% Voice 1 preserves the original staff layout
V: 2 clef=bass middle=d
z |\
G2 g4 d2 | B2G2 d4 | G2 g4 d2 | c2d2 G2G :| z |
g2e2 f2d2 | g2g2 d4 | g2e2 f2d2 | c2d2 G4 | g2e2 f2d2 |
g2g2 d4 | g2d2 g2G2 | c2d2 G2G |]
% - - - - - - - - - - - - - - - - - - - - - - - - -
%%begintext align
%% The 1st foot it down the middle up
%% again to top, Lead down the middle
%% up the 2d time to top turn partner
%% with Right hand same with Left.
%%endtext
% - - - - - - - - - - - - - - - - - - - - - - - - -

%%sep 1 1 500
%%sep 1 1 500

